docs/img/icon1/mobile_applications.svg

<svg width="287" height="390" viewBox="0 0 287 390" fill="none" xmlns="http://www.w3.org/2000/svg">
<path d="M145.75 266.948L145.773 266.925L145.795 266.9C150.86 261.133 153.35 253.6 153.35 244.4V228.8V227.8H152.35H38.5767C25.4968 227.8 16.059 225.058 10.0574 219.77C4.75122 213.792 2 204.39 2 191.36V37.44C2 24.3629 4.77087 15.3345 10.0562 10.0684C16.0562 4.09014 25.4902 1 38.5767 1H249.423C262.523 1 271.569 4.0955 276.86 10.0257L276.899 10.0696L276.943 10.1086C282.894 15.3794 286 24.3905 286 37.44V232.96C286 285.478 271.786 324.688 243.526 350.785C215.917 376.231 178.951 389 132.518 389H38.5767C25.4969 389 16.0591 386.258 10.0576 380.97C4.75133 374.992 2 365.59 2 352.56V310.96C2 297.883 4.77096 288.854 10.0562 283.588C16.0563 277.61 25.4902 274.52 38.5767 274.52H124.168C133.392 274.52 140.638 272.042 145.75 266.948Z" fill="#F5F6FF" stroke="#232323" stroke-width="2"/>
<path d="M77.1875 109.5L73.0625 96.0586H72.957C72.9727 96.3789 72.9961 96.8633 73.0273 97.5117C73.0664 98.1523 73.1016 98.8359 73.1328 99.5625C73.1641 100.289 73.1797 100.945 73.1797 101.531V109.5H69.9336V92.3672H74.8789L78.9336 105.469H79.0039L83.3047 92.3672H88.25V109.5H84.8633V101.391C84.8633 100.852 84.8711 100.23 84.8867 99.5273C84.9102 98.8242 84.9375 98.1562 84.9688 97.5234C85 96.8828 85.0234 96.4023 85.0391 96.082H84.9336L80.5156 109.5H77.1875ZM104.199 102.926C104.199 104.02 104.051 104.988 103.754 105.832C103.465 106.676 103.039 107.391 102.477 107.977C101.922 108.555 101.25 108.992 100.461 109.289C99.6797 109.586 98.7969 109.734 97.8125 109.734C96.8906 109.734 96.043 109.586 95.2695 109.289C94.5039 108.992 93.8359 108.555 93.2656 107.977C92.7031 107.391 92.2656 106.676 91.9531 105.832C91.6484 104.988 91.4961 104.02 91.4961 102.926C91.4961 101.473 91.7539 100.242 92.2695 99.2344C92.7852 98.2266 93.5195 97.4609 94.4727 96.9375C95.4258 96.4141 96.5625 96.1523 97.8828 96.1523C99.1094 96.1523 100.195 96.4141 101.141 96.9375C102.094 97.4609 102.84 98.2266 103.379 99.2344C103.926 100.242 104.199 101.473 104.199 102.926ZM95.1406 102.926C95.1406 103.785 95.2344 104.508 95.4219 105.094C95.6094 105.68 95.9023 106.121 96.3008 106.418C96.6992 106.715 97.2188 106.863 97.8594 106.863C98.4922 106.863 99.0039 106.715 99.3945 106.418C99.793 106.121 100.082 105.68 100.262 105.094C100.449 104.508 100.543 103.785 100.543 102.926C100.543 102.059 100.449 101.34 100.262 100.77C100.082 100.191 99.793 99.7578 99.3945 99.4688C98.9961 99.1797 98.4766 99.0352 97.8359 99.0352C96.8906 99.0352 96.2031 99.3594 95.7734 100.008C95.3516 100.656 95.1406 101.629 95.1406 102.926ZM106.355 101.648C106.355 99.7188 106.594 98.0781 107.07 96.7266C107.547 95.375 108.305 94.2969 109.344 93.4922C110.383 92.6797 111.746 92.1289 113.434 91.8398C114.277 91.6914 115.133 91.5703 116 91.4766C116.875 91.375 117.781 91.2617 118.719 91.1367L119.129 94.2656C118.723 94.3125 118.281 94.3633 117.805 94.418C117.328 94.4727 116.848 94.5312 116.363 94.5938C115.879 94.6484 115.41 94.707 114.957 94.7695C114.504 94.8242 114.094 94.8789 113.727 94.9336C112.93 95.0586 112.266 95.2539 111.734 95.5195C111.203 95.7852 110.797 96.207 110.516 96.7852C110.234 97.3633 110.062 98.1953 110 99.2812H110.176C110.363 98.9844 110.629 98.6836 110.973 98.3789C111.316 98.0664 111.742 97.8086 112.25 97.6055C112.758 97.3945 113.344 97.2891 114.008 97.2891C115.055 97.2891 115.961 97.5039 116.727 97.9336C117.492 98.3633 118.082 99.0039 118.496 99.8555C118.918 100.699 119.129 101.754 119.129 103.02C119.129 104.504 118.855 105.746 118.309 106.746C117.77 107.738 117.02 108.484 116.059 108.984C115.098 109.484 113.984 109.734 112.719 109.734C111.75 109.734 110.875 109.559 110.094 109.207C109.312 108.855 108.641 108.336 108.078 107.648C107.523 106.961 107.098 106.117 106.801 105.117C106.504 104.109 106.355 102.953 106.355 101.648ZM112.93 106.84C113.438 106.84 113.879 106.73 114.254 106.512C114.637 106.285 114.934 105.918 115.145 105.41C115.363 104.895 115.473 104.203 115.473 103.336C115.473 102.289 115.297 101.461 114.945 100.852C114.602 100.234 114.012 99.9258 113.176 99.9258C112.668 99.9258 112.191 100.051 111.746 100.301C111.309 100.543 110.938 100.824 110.633 101.145C110.328 101.457 110.117 101.723 110 101.941C110 102.559 110.047 103.16 110.141 103.746C110.242 104.324 110.402 104.848 110.621 105.316C110.84 105.785 111.137 106.156 111.512 106.43C111.895 106.703 112.367 106.84 112.93 106.84ZM125.539 96.3984V101.578C125.539 101.844 125.527 102.18 125.504 102.586C125.488 102.984 125.465 103.391 125.434 103.805C125.402 104.219 125.371 104.59 125.34 104.918C125.309 105.246 125.285 105.469 125.27 105.586L131.316 96.3984H135.617V109.5H132.16V104.273C132.16 103.844 132.176 103.371 132.207 102.855C132.238 102.332 132.273 101.84 132.312 101.379C132.352 100.918 132.379 100.57 132.395 100.336L126.371 109.5H122.082V96.3984H125.539ZM151.109 109.5H147.535V99.082H144.242C144.078 101.004 143.883 102.641 143.656 103.992C143.43 105.344 143.141 106.445 142.789 107.297C142.438 108.141 142 108.758 141.477 109.148C140.953 109.539 140.309 109.734 139.543 109.734C139.121 109.734 138.742 109.703 138.406 109.641C138.078 109.578 137.777 109.484 137.504 109.359V106.5C137.676 106.57 137.859 106.629 138.055 106.676C138.25 106.715 138.449 106.734 138.652 106.734C138.879 106.734 139.094 106.645 139.297 106.465C139.5 106.285 139.691 105.977 139.871 105.539C140.051 105.094 140.219 104.48 140.375 103.699C140.539 102.918 140.688 101.93 140.82 100.734C140.953 99.5391 141.078 98.0938 141.195 96.3984H151.109V109.5ZM158.445 101.461H160.965C162.309 101.461 163.418 101.602 164.293 101.883C165.168 102.164 165.82 102.594 166.25 103.172C166.68 103.742 166.895 104.461 166.895 105.328C166.895 106.172 166.699 106.906 166.309 107.531C165.918 108.156 165.297 108.641 164.445 108.984C163.594 109.328 162.48 109.5 161.105 109.5H154.871V96.3984H158.445V101.461ZM163.32 105.375C163.32 104.867 163.117 104.5 162.711 104.273C162.305 104.047 161.699 103.934 160.895 103.934H158.445V107.027H160.941C161.637 107.027 162.207 106.902 162.652 106.652C163.098 106.395 163.32 105.969 163.32 105.375ZM173.188 96.3984V101.438H178.18V96.3984H181.754V109.5H178.18V104.098H173.188V109.5H169.613V96.3984H173.188ZM185.504 109.5V96.3984H189.078V101.461H190.801C192.137 101.461 193.238 101.602 194.105 101.883C194.98 102.164 195.629 102.594 196.051 103.172C196.473 103.742 196.684 104.461 196.684 105.328C196.684 106.172 196.488 106.906 196.098 107.531C195.707 108.156 195.09 108.641 194.246 108.984C193.402 109.328 192.297 109.5 190.93 109.5H185.504ZM189.078 107.027H190.73C191.426 107.027 191.996 106.902 192.441 106.652C192.887 106.395 193.109 105.969 193.109 105.375C193.109 104.867 192.906 104.5 192.5 104.273C192.094 104.047 191.488 103.934 190.684 103.934H189.078V107.027ZM198.582 109.5V96.3984H202.156V109.5H198.582ZM211.32 96.1523C212.531 96.1523 213.574 96.3867 214.449 96.8555C215.324 97.3164 216 97.9883 216.477 98.8711C216.953 99.7539 217.191 100.832 217.191 102.105V103.84H208.742C208.781 104.848 209.082 105.641 209.645 106.219C210.215 106.789 211.004 107.074 212.012 107.074C212.848 107.074 213.613 106.988 214.309 106.816C215.004 106.645 215.719 106.387 216.453 106.043V108.809C215.805 109.129 215.125 109.363 214.414 109.512C213.711 109.66 212.855 109.734 211.848 109.734C210.535 109.734 209.371 109.492 208.355 109.008C207.348 108.523 206.555 107.785 205.977 106.793C205.406 105.801 205.121 104.551 205.121 103.043C205.121 101.512 205.379 100.238 205.895 99.2227C206.418 98.1992 207.145 97.4336 208.074 96.9258C209.004 96.4102 210.086 96.1523 211.32 96.1523ZM211.344 98.6953C210.648 98.6953 210.07 98.918 209.609 99.3633C209.156 99.8086 208.895 100.508 208.824 101.461H213.84C213.832 100.93 213.734 100.457 213.547 100.043C213.367 99.6289 213.094 99.3008 212.727 99.0586C212.367 98.8164 211.906 98.6953 211.344 98.6953ZM76.2617 129.398V142.5H72.6758V132.082H67.9297V142.5H64.3555V129.398H76.2617ZM87.3008 129.152C88.7773 129.152 89.9688 129.727 90.875 130.875C91.7891 132.023 92.2461 133.707 92.2461 135.926C92.2461 137.41 92.0312 138.66 91.6016 139.676C91.1719 140.684 90.5781 141.445 89.8203 141.961C89.0625 142.477 88.1914 142.734 87.207 142.734C86.5742 142.734 86.0312 142.656 85.5781 142.5C85.125 142.336 84.7383 142.129 84.418 141.879C84.0977 141.621 83.8203 141.348 83.5859 141.059H83.3984C83.4609 141.371 83.5078 141.691 83.5391 142.02C83.5703 142.348 83.5859 142.668 83.5859 142.98V148.266H80.0117V129.398H82.918L83.4219 131.098H83.5859C83.8203 130.746 84.1055 130.422 84.4414 130.125C84.7773 129.828 85.1797 129.594 85.6484 129.422C86.125 129.242 86.6758 129.152 87.3008 129.152ZM86.1523 132.012C85.5273 132.012 85.0312 132.141 84.6641 132.398C84.2969 132.656 84.0273 133.043 83.8555 133.559C83.6914 134.074 83.6016 134.727 83.5859 135.516V135.902C83.5859 136.746 83.6641 137.461 83.8203 138.047C83.9844 138.633 84.2539 139.078 84.6289 139.383C85.0117 139.688 85.5352 139.84 86.1992 139.84C86.7461 139.84 87.1953 139.688 87.5469 139.383C87.8984 139.078 88.1602 138.633 88.332 138.047C88.5117 137.453 88.6016 136.73 88.6016 135.879C88.6016 134.598 88.4023 133.633 88.0039 132.984C87.6055 132.336 86.9883 132.012 86.1523 132.012ZM98.6562 129.398V134.578C98.6562 134.844 98.6445 135.18 98.6211 135.586C98.6055 135.984 98.582 136.391 98.5508 136.805C98.5195 137.219 98.4883 137.59 98.457 137.918C98.4258 138.246 98.4023 138.469 98.3867 138.586L104.434 129.398H108.734V142.5H105.277V137.273C105.277 136.844 105.293 136.371 105.324 135.855C105.355 135.332 105.391 134.84 105.43 134.379C105.469 133.918 105.496 133.57 105.512 133.336L99.4883 142.5H95.1992V129.398H98.6562ZM124.227 142.5H120.652V132.082H117.359C117.195 134.004 117 135.641 116.773 136.992C116.547 138.344 116.258 139.445 115.906 140.297C115.555 141.141 115.117 141.758 114.594 142.148C114.07 142.539 113.426 142.734 112.66 142.734C112.238 142.734 111.859 142.703 111.523 142.641C111.195 142.578 110.895 142.484 110.621 142.359V139.5C110.793 139.57 110.977 139.629 111.172 139.676C111.367 139.715 111.566 139.734 111.77 139.734C111.996 139.734 112.211 139.645 112.414 139.465C112.617 139.285 112.809 138.977 112.988 138.539C113.168 138.094 113.336 137.48 113.492 136.699C113.656 135.918 113.805 134.93 113.938 133.734C114.07 132.539 114.195 131.094 114.312 129.398H124.227V142.5ZM139.895 135.926C139.895 137.02 139.746 137.988 139.449 138.832C139.16 139.676 138.734 140.391 138.172 140.977C137.617 141.555 136.945 141.992 136.156 142.289C135.375 142.586 134.492 142.734 133.508 142.734C132.586 142.734 131.738 142.586 130.965 142.289C130.199 141.992 129.531 141.555 128.961 140.977C128.398 140.391 127.961 139.676 127.648 138.832C127.344 137.988 127.191 137.02 127.191 135.926C127.191 134.473 127.449 133.242 127.965 132.234C128.48 131.227 129.215 130.461 130.168 129.938C131.121 129.414 132.258 129.152 133.578 129.152C134.805 129.152 135.891 129.414 136.836 129.938C137.789 130.461 138.535 131.227 139.074 132.234C139.621 133.242 139.895 134.473 139.895 135.926ZM130.836 135.926C130.836 136.785 130.93 137.508 131.117 138.094C131.305 138.68 131.598 139.121 131.996 139.418C132.395 139.715 132.914 139.863 133.555 139.863C134.188 139.863 134.699 139.715 135.09 139.418C135.488 139.121 135.777 138.68 135.957 138.094C136.145 137.508 136.238 136.785 136.238 135.926C136.238 135.059 136.145 134.34 135.957 133.77C135.777 133.191 135.488 132.758 135.09 132.469C134.691 132.18 134.172 132.035 133.531 132.035C132.586 132.035 131.898 132.359 131.469 133.008C131.047 133.656 130.836 134.629 130.836 135.926ZM161.469 129.398L156.641 135.68L161.926 142.5H158.105L153.113 135.855V142.5H149.785V135.855L144.793 142.5H140.973L146.258 135.68L141.43 129.398H145.121L149.785 135.762V129.398H153.113V135.762L157.777 129.398H161.469ZM169.203 129.152C170.414 129.152 171.457 129.387 172.332 129.855C173.207 130.316 173.883 130.988 174.359 131.871C174.836 132.754 175.074 133.832 175.074 135.105V136.84H166.625C166.664 137.848 166.965 138.641 167.527 139.219C168.098 139.789 168.887 140.074 169.895 140.074C170.73 140.074 171.496 139.988 172.191 139.816C172.887 139.645 173.602 139.387 174.336 139.043V141.809C173.688 142.129 173.008 142.363 172.297 142.512C171.594 142.66 170.738 142.734 169.73 142.734C168.418 142.734 167.254 142.492 166.238 142.008C165.23 141.523 164.438 140.785 163.859 139.793C163.289 138.801 163.004 137.551 163.004 136.043C163.004 134.512 163.262 133.238 163.777 132.223C164.301 131.199 165.027 130.434 165.957 129.926C166.887 129.41 167.969 129.152 169.203 129.152ZM169.227 131.695C168.531 131.695 167.953 131.918 167.492 132.363C167.039 132.809 166.777 133.508 166.707 134.461H171.723C171.715 133.93 171.617 133.457 171.43 133.043C171.25 132.629 170.977 132.301 170.609 132.059C170.25 131.816 169.789 131.695 169.227 131.695ZM181.555 129.398V134.438H186.547V129.398H190.121V142.5H186.547V137.098H181.555V142.5H177.98V129.398H181.555ZM197.328 129.398V134.578C197.328 134.844 197.316 135.18 197.293 135.586C197.277 135.984 197.254 136.391 197.223 136.805C197.191 137.219 197.16 137.59 197.129 137.918C197.098 138.246 197.074 138.469 197.059 138.586L203.105 129.398H207.406V142.5H203.949V137.273C203.949 136.844 203.965 136.371 203.996 135.855C204.027 135.332 204.062 134.84 204.102 134.379C204.141 133.918 204.168 133.57 204.184 133.336L198.16 142.5H193.871V129.398H197.328ZM213.16 142.5H209.293L212.82 137.32C212.375 137.133 211.957 136.875 211.566 136.547C211.176 136.211 210.859 135.789 210.617 135.281C210.375 134.773 210.254 134.164 210.254 133.453C210.254 132.148 210.746 131.148 211.73 130.453C212.723 129.75 214 129.398 215.562 129.398H221.656V142.5H218.082V137.625H216.113L213.16 142.5ZM213.758 133.477C213.758 134.023 213.973 134.453 214.402 134.766C214.84 135.07 215.402 135.223 216.09 135.223H218.082V131.918H215.633C214.992 131.918 214.52 132.074 214.215 132.387C213.91 132.691 213.758 133.055 213.758 133.477Z" fill="#232323"/>
</svg>

<svg width="287" height="390" fill="none" xmlns="http://www.w3.org/2000/svg"><path d="M145.75 266.948l.023-.023.022-.025c5.065-5.767 7.555-13.3 7.555-22.5v-16.6H38.577c-13.08 0-22.518-2.742-28.52-8.03C4.751 213.792 2 204.39 2 191.36V37.44c0-13.077 2.77-22.105 8.056-27.372C16.056 4.09 25.49 1 38.576 1h210.847c13.1 0 22.146 3.096 27.437 9.026l.039.044.044.039C282.894 15.379 286 24.39 286 37.44v195.52c0 52.518-14.214 91.728-42.474 117.825C215.917 376.231 178.951 389 132.518 389H38.577c-13.08 0-22.518-2.742-28.52-8.03C4.752 374.992 2 365.59 2 352.56v-41.6c0-13.077 2.771-22.106 8.056-27.372 6-5.978 15.434-9.068 28.52-9.068h85.592c9.224 0 16.47-2.478 21.582-7.572z" fill="#F5F6FF" stroke="#232323" stroke-width="2"/><path d="M77.188 109.5l-4.126-13.441h-.105c.016.32.04.804.07 1.453.04.64.075 1.324.106 2.05.031.727.047 1.383.047 1.969v7.969h-3.246V92.367h4.945l4.055 13.102h.07l4.3-13.102h4.946V109.5h-3.387v-8.109c0-.539.008-1.161.024-1.864.023-.703.05-1.37.082-2.004l.07-1.441h-.105L80.516 109.5h-3.329zm27.011-6.574c0 1.094-.148 2.062-.445 2.906-.289.844-.715 1.559-1.277 2.145a5.378 5.378 0 01-2.016 1.312c-.781.297-1.664.445-2.648.445-.922 0-1.77-.148-2.544-.445a5.654 5.654 0 01-2.003-1.312c-.563-.586-1-1.301-1.313-2.145-.305-.844-.457-1.812-.457-2.906 0-1.453.258-2.684.773-3.692.516-1.007 1.25-1.773 2.204-2.296.953-.524 2.09-.786 3.41-.786 1.226 0 2.312.262 3.258.785.953.524 1.699 1.29 2.238 2.297.547 1.008.82 2.239.82 3.692zm-9.058 0c0 .859.093 1.582.28 2.168.188.586.481 1.027.88 1.324.398.297.918.445 1.558.445.633 0 1.145-.148 1.535-.445.399-.297.688-.738.868-1.324.187-.586.281-1.309.281-2.168 0-.867-.094-1.586-.281-2.156-.18-.579-.469-1.012-.868-1.301-.398-.29-.917-.434-1.558-.434-.945 0-1.633.324-2.063.973-.421.648-.632 1.621-.632 2.918zm11.214-1.278c0-1.93.239-3.57.715-4.921.477-1.352 1.235-2.43 2.274-3.235 1.039-.812 2.402-1.363 4.09-1.652.843-.149 1.699-.27 2.566-.363.875-.102 1.781-.215 2.719-.34l.41 3.129-1.324.152c-.477.055-.957.113-1.442.176a57.27 57.27 0 00-1.406.175c-.453.055-.863.11-1.23.165-.797.125-1.461.32-1.993.585-.531.266-.937.688-1.218 1.266-.282.578-.454 1.41-.516 2.496h.176a4.3 4.3 0 01.797-.902c.343-.313.769-.57 1.277-.773.508-.212 1.094-.317 1.758-.317 1.047 0 1.953.215 2.719.645.765.43 1.355 1.07 1.769 1.922.422.843.633 1.898.633 3.164 0 1.484-.274 2.726-.82 3.726-.539.992-1.289 1.738-2.25 2.238-.961.5-2.075.75-3.34.75-.969 0-1.844-.175-2.625-.527a5.49 5.49 0 01-2.016-1.559c-.555-.687-.98-1.531-1.277-2.531-.297-1.008-.446-2.164-.446-3.469zm6.575 5.192c.508 0 .949-.11 1.324-.328.383-.227.68-.594.891-1.102.218-.515.328-1.207.328-2.074 0-1.047-.176-1.875-.528-2.484-.343-.618-.933-.926-1.769-.926-.508 0-.985.125-1.43.375a4.58 4.58 0 00-1.113.844c-.305.312-.516.578-.633.796 0 .618.047 1.219.141 1.805.101.578.261 1.102.48 1.57.219.469.516.84.891 1.114.383.273.855.41 1.418.41zm12.609-10.442v5.18c0 .266-.012.602-.035 1.008-.016.398-.039.805-.07 1.219-.032.414-.063.785-.094 1.113-.031.328-.055.551-.07.668l6.046-9.188h4.301V109.5h-3.457v-5.227c0-.429.016-.902.047-1.418.031-.523.066-1.015.105-1.476.04-.461.067-.809.083-1.043l-6.024 9.164h-4.289V96.398h3.457zm25.57 13.102h-3.574V99.082h-3.293c-.164 1.922-.359 3.559-.586 4.91-.226 1.352-.515 2.453-.867 3.305-.351.844-.789 1.461-1.312 1.851-.524.391-1.168.586-1.934.586a6.3 6.3 0 01-1.137-.093 3.95 3.95 0 01-.902-.282V106.5c.172.07.355.129.551.176.195.039.394.058.597.058.227 0 .442-.089.645-.269.203-.18.394-.488.574-.926.18-.445.348-1.059.504-1.84.164-.781.313-1.769.445-2.965.133-1.195.258-2.64.375-4.336h9.914V109.5zm7.336-8.039h2.52c1.344 0 2.453.141 3.328.422s1.527.711 1.957 1.289c.43.57.645 1.289.645 2.156 0 .844-.196 1.578-.586 2.203-.391.625-1.012 1.11-1.864 1.453-.851.344-1.965.516-3.34.516h-6.234V96.398h3.574v5.063zm4.875 3.914c0-.508-.203-.875-.609-1.102-.406-.226-1.012-.339-1.816-.339h-2.45v3.093h2.496c.696 0 1.266-.125 1.711-.375.446-.257.668-.683.668-1.277zm9.868-8.977v5.04h4.992v-5.04h3.574V109.5h-3.574v-5.402h-4.992v5.402h-3.575V96.398h3.575zm12.316 13.102V96.398h3.574v5.063h1.723c1.336 0 2.437.141 3.304.422.875.281 1.524.711 1.946 1.289.422.57.633 1.289.633 2.156 0 .844-.196 1.578-.586 2.203-.391.625-1.008 1.11-1.852 1.453-.844.344-1.949.516-3.316.516h-5.426zm3.574-2.473h1.652c.696 0 1.266-.125 1.711-.375.446-.257.668-.683.668-1.277 0-.508-.203-.875-.609-1.102-.406-.226-1.012-.339-1.816-.339h-1.606v3.093zm9.504 2.473V96.398h3.574V109.5h-3.574zm12.738-13.348c1.211 0 2.254.235 3.129.704a4.809 4.809 0 012.028 2.015c.476.883.714 1.961.714 3.234v1.735h-8.449c.039 1.008.34 1.801.903 2.379.57.57 1.359.855 2.367.855.836 0 1.601-.086 2.297-.258.695-.171 1.41-.429 2.144-.773v2.766a8.545 8.545 0 01-2.039.703c-.703.148-1.559.222-2.566.222-1.313 0-2.477-.242-3.493-.726a5.43 5.43 0 01-2.378-2.215c-.571-.992-.856-2.242-.856-3.75 0-1.531.258-2.805.774-3.82.523-1.024 1.25-1.79 2.179-2.297.93-.516 2.012-.774 3.246-.774zm.024 2.543c-.696 0-1.274.223-1.735.668-.453.446-.714 1.145-.785 2.098h5.016a3.544 3.544 0 00-.293-1.418 2.204 2.204 0 00-.82-.984c-.36-.243-.821-.364-1.383-.364zM76.262 129.398V142.5h-3.586v-10.418H67.93V142.5h-3.575v-13.102h11.907zm11.039-.246c1.476 0 2.668.575 3.574 1.723.914 1.148 1.371 2.832 1.371 5.051 0 1.484-.215 2.734-.644 3.75-.43 1.008-1.024 1.769-1.782 2.285-.757.516-1.629.773-2.613.773-.633 0-1.176-.078-1.629-.234a4.186 4.186 0 01-1.16-.621 5.535 5.535 0 01-.832-.82h-.188a10.138 10.138 0 01.188 1.921v5.286h-3.574v-18.868h2.906l.504 1.7h.164c.234-.352.52-.676.855-.973a3.75 3.75 0 011.207-.703c.477-.18 1.028-.27 1.653-.27zm-1.149 2.86c-.625 0-1.12.129-1.488.386-.367.258-.637.645-.808 1.161-.165.515-.254 1.168-.27 1.957v.386c0 .844.078 1.559.234 2.145.164.586.434 1.031.809 1.336.383.305.906.457 1.57.457.547 0 .996-.152 1.348-.457.351-.305.613-.75.785-1.336.18-.594.27-1.317.27-2.168 0-1.281-.2-2.246-.598-2.895-.398-.648-1.016-.972-1.852-.972zm12.504-2.614v5.18c0 .266-.012.602-.035 1.008-.015.398-.039.805-.07 1.219a57.39 57.39 0 01-.094 1.113c-.031.328-.055.551-.07.668l6.047-9.188h4.3V142.5h-3.457v-5.227c0-.429.016-.902.047-1.418.031-.523.067-1.015.106-1.476.039-.461.066-.809.082-1.043l-6.024 9.164H95.2v-13.102h3.457zm25.571 13.102h-3.575v-10.418h-3.293c-.164 1.922-.359 3.559-.586 4.91-.226 1.352-.515 2.453-.867 3.305-.351.844-.789 1.461-1.312 1.851-.524.391-1.168.586-1.934.586a6.3 6.3 0 01-1.137-.093 3.966 3.966 0 01-.902-.282V139.5c.172.07.356.129.551.176.195.039.394.058.598.058.226 0 .441-.089.644-.269.203-.18.395-.488.574-.926.18-.445.348-1.059.504-1.84.164-.781.313-1.769.446-2.965.132-1.195.257-2.64.374-4.336h9.915V142.5zm15.668-6.574c0 1.094-.149 2.062-.446 2.906-.289.844-.715 1.559-1.277 2.145a5.378 5.378 0 01-2.016 1.312c-.781.297-1.664.445-2.648.445-.922 0-1.77-.148-2.543-.445a5.649 5.649 0 01-2.004-1.312c-.563-.586-1-1.301-1.313-2.145-.304-.844-.457-1.812-.457-2.906 0-1.453.258-2.684.774-3.692.515-1.007 1.25-1.773 2.203-2.296.953-.524 2.09-.786 3.41-.786 1.227 0 2.313.262 3.258.786.953.523 1.699 1.289 2.238 2.296.547 1.008.821 2.239.821 3.692zm-9.059 0c0 .859.094 1.582.281 2.168.188.586.481 1.027.879 1.324.399.297.918.445 1.559.445.633 0 1.144-.148 1.535-.445.398-.297.687-.738.867-1.324.188-.586.281-1.309.281-2.168 0-.867-.093-1.586-.281-2.156-.18-.579-.469-1.012-.867-1.301-.399-.289-.918-.434-1.559-.434-.945 0-1.633.324-2.062.973-.422.648-.633 1.621-.633 2.918zm30.633-6.528l-4.828 6.282 5.285 6.82h-3.821l-4.992-6.645v6.645h-3.328v-6.645l-4.992 6.645h-3.82l5.285-6.82-4.828-6.282h3.691l4.664 6.364v-6.364h3.328v6.364l4.664-6.364h3.692zm7.734-.246c1.211 0 2.254.235 3.129.703a4.801 4.801 0 012.027 2.016c.477.883.715 1.961.715 3.234v1.735h-8.449c.039 1.008.34 1.801.902 2.379.571.57 1.36.855 2.368.855.835 0 1.601-.086 2.296-.258a11.58 11.58 0 002.145-.773v2.766a8.545 8.545 0 01-2.039.703c-.703.148-1.559.222-2.567.222-1.312 0-2.476-.242-3.492-.726a5.433 5.433 0 01-2.379-2.215c-.57-.992-.855-2.242-.855-3.75 0-1.531.258-2.805.773-3.82.524-1.024 1.25-1.789 2.18-2.297.93-.516 2.012-.774 3.246-.774zm.024 2.543c-.696 0-1.274.223-1.735.668-.453.446-.715 1.145-.785 2.098h5.016a3.544 3.544 0 00-.293-1.418 2.198 2.198 0 00-.821-.984c-.359-.243-.82-.364-1.382-.364zm12.328-2.297v5.04h4.992v-5.04h3.574V142.5h-3.574v-5.402h-4.992v5.402h-3.575v-13.102h3.575zm15.773 0v5.18c0 .266-.012.602-.035 1.008-.016.398-.039.805-.07 1.219-.032.414-.063.785-.094 1.113-.031.328-.055.551-.07.668l6.046-9.188h4.301V142.5h-3.457v-5.227c0-.429.016-.902.047-1.418a54.35 54.35 0 01.106-1.476c.039-.461.066-.809.082-1.043l-6.024 9.164h-4.289v-13.102h3.457zM213.16 142.5h-3.867l3.527-5.18a4.902 4.902 0 01-1.254-.773 3.805 3.805 0 01-.949-1.266c-.242-.508-.363-1.117-.363-1.828 0-1.305.492-2.305 1.476-3 .993-.703 2.27-1.055 3.832-1.055h6.094V142.5h-3.574v-4.875h-1.969l-2.953 4.875zm.598-9.023c0 .546.215.976.644 1.289.438.304 1 .457 1.688.457h1.992v-3.305h-2.449c-.641 0-1.113.156-1.418.469a1.486 1.486 0 00-.457 1.09z" fill="#232323"/></svg>
